X: 9440
T: Danny's Delight
R: jig
M: 6/8
K: Dmajor
|:DFA dfe|dAF A2 F|GBG FGA|BGE EFE|
DFA dfe|dAF A2 F|GeG FAd|1 cBc d2 E:|2 cBc d2 _e||
|:ecA AGE|FDc d2F|GeG FGA|BGE E2d|
cBc A^G=G|FAd f2F|GeG FAd|1 cBc d2 _e:|2 cBc d3||

